X: 1
T:Saint James Infirmary Blues
C:anon.
O:USA
Z:Transcribed by Frank Nordberg - http://www.musicaviva.com
M:C
L:1/8
K:Cm
CE|"Cm"G2GG "G7"F2G2|"Cm"E C3 z2 CE|"Cm"GG3 "Fm"c3 A|"G"G4 z2 z ^F|
"Cm"G2GG "G7"=F2GF|"Cm"EC3 z2 CD|"Ab7"E3E "G7"E2D2|"Cm"C4 z2|]
